X: 1
P: Niel Gow's Wife
R: strathspey
C: Duncan McIntyre
C: Elke Baker arr.
M: 4/4
L: 1/8
K: Gm
R: strathspey
|: d|"Gm"B<GG>B "F"A<FF>A|"Gm"B<GG>A B>c!beambr1!d<g|"Gm"B<GG>B "F"A<FF>A|"Bb"B<B"F"c>A "Bb"F<B B :|
d|"Bb"B<Bd>B f>Bd>B|"F"F<FA>F c>F!beambr1!A<c|"Bb"B<Bd>B f>B!beambr1!d<f|"Gm"g<gb>g d<gg>b|
"Bb"f<dd>f "Cm"e<cc>e|"Bb"d<BB>d "Dm/F"c>B!beambr1!A<F|"Gm"G<G"/Bb"B<B "Cm"c<c"Gm"d>c|"Gm"B>G "D"B/A/G/^F/ "Gm"D<G G |]

